img/certificate/icon2.svg

<svg width="291" height="40" viewBox="0 0 291 40" fill="none" xmlns="http://www.w3.org/2000/svg">
<path fill-rule="evenodd" clip-rule="evenodd" d="M116.095 0.0574225C111.802 0.259027 107.528 1.9753 104.115 4.86746C100.711 7.75273 98.2591 12.0858 97.4852 16.5839L97.255 17.9214L93.2041 17.8949L89.1531 17.8685V11.1821V4.49575L94.047 4.46941C97.6001 4.45037 98.9801 4.41066 99.0835 4.32464C99.2512 4.18514 101.942 0.632045 101.942 0.549985C101.942 0.519289 98.1658 0.494063 93.5508 0.494063H85.1598V19.7427C85.1598 34.313 85.1885 38.9913 85.2775 38.9913C85.4218 38.9913 88.8004 36.7524 88.9755 36.5408C89.0725 36.4235 89.1071 34.7509 89.1271 29.2055L89.1531 22.0222L93.2028 21.9957L97.2525 21.9693L97.4379 23.1101C98.7436 31.1449 104.651 37.5195 112.543 39.4098C115.309 40.0723 118.959 40.0641 121.706 39.3892C125.165 38.5393 128.099 36.9557 130.647 34.5627C131.826 33.4556 133.281 31.7561 133.281 31.4863C133.281 31.374 132.723 30.9201 131.74 30.232L130.198 29.1537L129.793 29.6363C126.636 33.4054 123.173 35.3342 118.624 35.8572C116.669 36.0819 114.038 35.7786 111.989 35.0926C110.811 34.6982 108.897 33.7102 107.809 32.9355C106.765 32.1911 105.267 30.745 104.508 29.7479C102.535 27.1557 101.395 24.0495 101.17 20.6541C101.008 18.2155 101.813 14.7667 103.093 12.4132C104.198 10.3828 106.046 8.28034 107.859 6.9922C108.953 6.21476 111.042 5.1809 112.355 4.76696C117.888 3.02212 124.126 4.5306 128.206 8.60038C128.699 9.09142 129.278 9.7251 129.493 10.0085C129.709 10.2918 129.933 10.5223 129.991 10.5206C130.141 10.5163 132.885 8.47881 133.012 8.27761C133.096 8.14418 133.003 7.96902 132.545 7.40159C130.075 4.33812 126.489 1.94693 122.726 0.854215C121.014 0.356992 118.24 -0.0597916 117.089 0.00707216C116.904 0.0178109 116.456 0.0404027 116.095 0.0574225ZM18.7992 0.557482C14.0346 0.865562 9.40982 2.96245 6.05416 6.33613C2.76371 9.64426 0.860794 13.7358 0.399394 18.4944C0.243202 20.1048 0.242697 20.3618 0.393025 21.9389C0.569033 23.7864 0.869791 25.2804 1.33887 26.6371C3.86363 33.939 10.2253 39.0342 17.9076 39.9072C19.2302 40.0575 21.7209 40.0045 21.9029 39.8223C22.0021 39.7229 22.0416 39.0541 22.0644 37.0885C22.0811 35.6572 22.0694 34.3849 22.0385 34.2612C21.9828 34.0391 21.9653 34.0369 20.6433 34.096C16.7345 34.2708 13.0727 32.8672 10.3116 30.1359C8.47318 28.3172 7.26013 26.2155 6.60139 23.7076C6.32975 22.6739 6.28537 22.3104 6.24089 20.7558C6.18347 18.7543 6.30822 17.7464 6.81744 16.0956C7.45909 14.0154 8.57134 12.21 10.2544 10.5167C12.3631 8.39512 14.6988 7.16959 17.6871 6.61665C18.4906 6.46793 20.4324 6.41251 21.7309 6.50126L22.0342 6.52193V3.66492C22.0342 1.80875 21.9971 0.770737 21.9283 0.701847C21.8138 0.587267 19.7855 0.493658 18.7992 0.557482ZM51.9585 0.591623C45.1351 1.14244 38.992 5.28799 35.9444 11.3982C34.9591 13.3739 34.2922 15.5083 34.0022 17.6152C33.8122 18.9954 33.8402 21.8642 34.0577 23.2885C34.9059 28.8448 38.1089 33.7653 42.9104 36.8884C45.0124 38.2555 47.3353 39.1732 50.0376 39.7039C51.3493 39.9615 54.7015 40.0998 55.1698 39.9156L55.4494 39.8057L55.4226 36.9482L55.3957 34.0907L53.576 34.077C52.0984 34.0657 51.5567 34.0198 50.6948 33.8327C49.5602 33.5863 48.3105 33.1413 47.253 32.6071C44.7399 31.3375 42.4313 28.9961 41.1206 26.388C40.7364 25.6235 39.967 23.3893 40.0447 23.2635C40.0705 23.2215 42.66 23.1872 45.7991 23.1872H51.5067L51.4798 20.2746L51.453 17.362L45.7664 17.3358C40.3731 17.311 40.0797 17.3003 40.0797 17.1277C40.0797 16.794 40.7839 14.8452 41.1976 14.0343C43.1893 10.1288 46.8998 7.38214 51.2176 6.61706C52.1949 6.44392 54.5301 6.38263 55.1177 6.51484L55.4462 6.58869V3.64861C55.4462 1.87875 55.4076 0.684726 55.3492 0.648457C55.1795 0.5434 53.0075 0.506929 51.9585 0.591623ZM115.994 8.66582C114.638 8.79854 113.211 9.2289 111.902 9.89976C108.971 11.4024 106.931 13.9967 106.074 17.3113C105.825 18.2764 105.718 20.4266 105.866 21.5156C106.52 26.3336 110.082 30.1164 114.932 31.1422C115.979 31.3634 118.177 31.3638 119.229 31.1431C120.783 30.8167 122.135 30.2619 123.424 29.4218C124.123 28.9666 126.306 26.8269 126.306 26.5974C126.306 26.5127 125.617 25.9614 124.776 25.3725C123.371 24.3892 122.97 24.1686 122.97 24.38C122.97 24.5222 121.783 25.6919 121.303 26.023C119.102 27.5405 116.326 27.751 113.921 26.5827C111.49 25.4013 109.932 23.1073 109.758 20.4519C109.621 18.3645 110.407 16.3318 111.951 14.7812C113.286 13.4403 114.786 12.7704 116.663 12.6767C118.99 12.5606 120.782 13.2779 122.478 15.004L123.069 15.6052L123.853 15.0379C124.285 14.726 124.888 14.2912 125.194 14.0717C126.298 13.279 126.266 13.3174 126.068 13.0144C125.753 12.5334 124.406 11.2527 123.655 10.7219C121.432 9.14906 118.659 8.40495 115.994 8.66582Z" fill="white"/>
<path fill-rule="evenodd" clip-rule="evenodd" d="M273.428 3.18583C268.973 3.86995 266.017 6.06505 264.823 9.57577C263.678 12.9412 264.963 16.9056 267.905 19.0849C269.698 20.4129 271.452 21.0804 276.79 22.4649C280.67 23.4714 281.703 23.8647 282.594 24.6752C283.662 25.6465 283.877 27.1414 283.151 28.5547C282.742 29.3503 281.673 30.3284 280.761 30.7402C279.327 31.3881 276.871 31.6054 275.12 31.2393C272.437 30.6786 270.842 29.1208 269.993 26.2324L269.67 25.1334L269.229 25.1673C268.986 25.1859 267.619 25.3175 266.191 25.4596C264.762 25.6017 263.497 25.718 263.38 25.718C263.199 25.718 263.181 25.8205 263.261 26.4C263.731 29.829 265.472 32.9429 267.848 34.6049C270.073 36.1621 272.349 36.8264 275.964 36.974C281.34 37.1934 285.236 36.0236 287.634 33.4695C289.549 31.4308 290.412 29.0581 290.265 26.2376C290.104 23.1385 289.038 20.9618 286.856 19.2774C285.131 17.9452 283.077 17.1498 278.202 15.9254C273.025 14.6251 271.627 13.9703 271.033 12.5687C269.954 10.0202 273.379 8.00592 277.862 8.55246C280.37 8.85814 281.699 9.93146 282.357 12.1818C282.647 13.1727 282.653 13.1816 283.092 13.1816C284.507 13.1816 289.211 12.9515 289.287 12.8786C289.445 12.7282 289.129 10.7542 288.785 9.73907C288.162 7.89979 286.73 6.06051 285.078 4.979C283.672 4.05793 281.614 3.38447 279.391 3.1175C277.873 2.93537 274.832 2.97018 273.428 3.18583ZM161.281 20.0019V36.5006H164.639H167.996V29.6153V22.73L169.478 22.7311C171.342 22.7322 172.449 22.9075 173.309 23.3378C174.665 24.0156 175.495 25.0658 180.473 32.4084L183.204 36.4356L187.202 36.4701C190.882 36.5018 191.193 36.4874 191.116 36.2886C190.985 35.9542 186.79 29.3702 185.456 27.4068C184.065 25.3594 182.403 23.6312 180.856 22.6229C180.289 22.2531 179.904 21.9277 180 21.8995C180.097 21.8715 180.531 21.777 180.966 21.6897C182.199 21.4417 183.761 20.8346 184.673 20.2487C186.521 19.0606 187.912 17.0295 188.356 14.8704C188.666 13.3619 188.551 11.0668 188.095 9.67125C187.273 7.15734 185.441 5.17763 183.227 4.40973C181.034 3.6491 178.795 3.50581 169.083 3.50438L161.281 3.50321V20.0019ZM228.631 3.92542C228.589 4.1577 228.571 11.5674 228.592 20.3916L228.629 36.4356H231.987H235.344L235.378 29.2581L235.412 22.0805H241.995H248.577V29.2905V36.5006H251.934H255.292V20.0019V3.50321H251.934H248.577V9.99876V16.4943H241.994H235.41V9.99876V3.50321H232.059H228.707L228.631 3.92542ZM179.192 9.44755C180.051 9.78791 180.904 10.5956 181.285 11.4278C181.637 12.1974 181.661 13.9425 181.331 14.8494C181.022 15.6999 180.375 16.4109 179.547 16.8096C178.569 17.2803 177.094 17.3987 172.177 17.4015L167.996 17.4037V13.2385V9.07314L173.23 9.11601C178.28 9.1572 178.489 9.16889 179.192 9.44755ZM205.908 12.2786C202.885 12.8189 200.063 14.4898 198.482 16.6763C197.704 17.7512 196.775 19.6954 196.426 20.9762C196.029 22.4357 195.934 25.3275 196.228 27.0171C196.69 29.6708 197.476 31.4224 198.958 33.1046C202.297 36.8928 209.338 38.1307 214.118 35.7699C217.289 34.2039 219.452 31.5975 220.465 28.1213C221.098 25.9524 221.056 22.5934 220.37 20.3916C219.033 16.1055 215.069 12.7774 210.621 12.2074C209.281 12.0356 207.082 12.0688 205.908 12.2786ZM209.34 17.2783C211.789 17.6575 213.572 19.486 214.161 22.2226C214.484 23.7233 214.358 26.3831 213.903 27.7016C213.345 29.3133 212.503 30.3909 211.224 31.131C209.769 31.9722 207.688 32.045 206.126 31.3096C203.775 30.2028 202.625 27.9987 202.625 24.6014C202.625 21.9032 203.158 20.2767 204.502 18.8747C205.449 17.8862 206.673 17.3412 208.352 17.16C208.425 17.1522 208.869 17.2054 209.34 17.2783Z" fill="white"/>
</svg>

<svg width="291" height="40" fill="none" xmlns="http://www.w3.org/2000/svg"><path fill-rule="evenodd" clip-rule="evenodd" d="M116.095.057c-4.293.202-8.567 1.918-11.98 4.81-3.404 2.886-5.856 7.219-6.63 11.717l-.23 1.337-4.05-.026-4.052-.026V4.495l4.894-.027c3.553-.019 4.933-.058 5.037-.144.167-.14 2.858-3.693 2.858-3.775 0-.03-3.776-.056-8.391-.056H85.16v19.249c0 14.57.029 19.248.118 19.248.144 0 3.522-2.239 3.697-2.45.098-.117.132-1.79.152-7.335l.026-7.184 4.05-.026 4.05-.027.185 1.141c1.306 8.035 7.213 14.41 15.105 16.3 2.766.662 6.416.654 9.163-.02 3.459-.85 6.393-2.434 8.941-4.827 1.179-1.107 2.634-2.807 2.634-3.077 0-.112-.558-.566-1.541-1.254l-1.542-1.078-.405.482c-3.157 3.77-6.62 5.698-11.169 6.221-1.955.225-4.586-.078-6.635-.764-1.178-.395-3.092-1.383-4.18-2.158-1.044-.744-2.542-2.19-3.301-3.187-1.973-2.592-3.113-5.699-3.338-9.094-.162-2.439.643-5.887 1.923-8.24 1.105-2.031 2.953-4.134 4.766-5.422 1.094-.777 3.183-1.811 4.496-2.225 5.533-1.745 11.771-.236 15.851 3.833.493.491 1.072 1.125 1.287 1.409.216.283.44.513.498.512.15-.005 2.894-2.042 3.021-2.243.084-.134-.009-.309-.467-.876-2.47-3.064-6.056-5.455-9.819-6.548-1.712-.497-4.486-.914-5.637-.847-.185.01-.633.033-.994.05zm-97.296.5c-4.764.309-9.39 2.405-12.745 5.78C2.764 9.643.861 13.735.4 18.493c-.156 1.61-.156 1.868-.006 3.445.176 1.847.477 3.341.946 4.698 2.525 7.302 8.886 12.397 16.569 13.27 1.322.15 3.813.098 3.995-.085.1-.1.139-.768.161-2.733.017-1.432.005-2.704-.026-2.828-.055-.222-.073-.224-1.395-.165-3.909.175-7.57-1.229-10.331-3.96-1.839-1.819-3.052-3.92-3.71-6.428-.272-1.034-.317-1.398-.361-2.952-.058-2.002.067-3.01.576-4.66.642-2.08 1.754-3.886 3.437-5.58 2.11-2.12 4.445-3.346 7.433-3.9.804-.148 2.745-.203 4.044-.115l.303.02V3.666c0-1.856-.037-2.894-.106-2.963C21.814.587 19.785.494 18.8.557zm33.16.035c-6.824.55-12.967 4.696-16.015 10.806a20.251 20.251 0 00-1.942 6.217c-.19 1.38-.162 4.25.056 5.674.848 5.556 4.05 10.476 8.852 13.6 2.102 1.366 4.425 2.284 7.128 2.815 1.311.258 4.664.396 5.132.212l.28-.11-.027-2.858-.027-2.857-1.82-.014c-1.478-.011-2.02-.057-2.881-.244a15.037 15.037 0 01-3.442-1.226c-2.513-1.27-4.822-3.61-6.132-6.219-.385-.765-1.154-2.999-1.076-3.125.026-.042 2.615-.076 5.754-.076h5.708l-.027-2.912-.027-2.913-5.687-.026c-5.393-.025-5.686-.036-5.686-.208 0-.334.704-2.283 1.118-3.094a13.989 13.989 0 0110.02-7.417c.977-.173 3.312-.234 3.9-.102l.328.074v-2.94c0-1.77-.038-2.964-.097-3-.17-.106-2.341-.142-3.39-.057zm64.035 8.074c-1.356.133-2.783.563-4.092 1.234-2.931 1.502-4.971 4.097-5.828 7.411-.249.965-.356 3.116-.208 4.205.654 4.818 4.216 8.6 9.066 9.626 1.047.221 3.245.222 4.297.001a12.01 12.01 0 004.195-1.721c.699-.455 2.882-2.595 2.882-2.825 0-.084-.689-.636-1.53-1.225-1.405-.983-1.806-1.203-1.806-.992 0 .142-1.187 1.312-1.667 1.643a7.288 7.288 0 01-7.382.56c-2.431-1.182-3.989-3.476-4.163-6.131-.137-2.088.649-4.12 2.193-5.67 1.335-1.342 2.835-2.012 4.712-2.105 2.327-.116 4.119.6 5.815 2.327l.591.601.784-.567c.432-.312 1.035-.747 1.341-.966 1.104-.793 1.072-.755.874-1.058-.315-.48-1.662-1.761-2.413-2.292-2.223-1.573-4.996-2.317-7.661-2.056zm157.434-5.48c-4.455.684-7.411 2.88-8.605 6.39-1.145 3.365.14 7.33 3.082 9.509 1.793 1.328 3.547 1.995 8.885 3.38 3.88 1.006 4.913 1.4 5.804 2.21 1.068.971 1.283 2.466.557 3.88-.409.795-1.478 1.773-2.39 2.185-1.434.648-3.89.865-5.641.5-2.683-.561-4.278-2.12-5.127-5.008l-.323-1.099-.441.034c-.243.019-1.61.15-3.038.293-1.429.142-2.694.258-2.811.258-.181 0-.199.102-.119.682.47 3.429 2.211 6.543 4.587 8.205 2.225 1.557 4.501 2.221 8.116 2.369 5.376.22 9.272-.95 11.67-3.505 1.915-2.038 2.778-4.41 2.631-7.231-.161-3.1-1.227-5.276-3.409-6.96-1.725-1.333-3.779-2.128-8.654-3.353-5.177-1.3-6.575-1.955-7.169-3.356-1.079-2.549 2.346-4.563 6.829-4.017 2.508.306 3.837 1.38 4.495 3.63.29.99.296 1 .735 1 1.415 0 6.119-.23 6.195-.303.158-.15-.158-2.125-.502-3.14-.623-1.84-2.055-3.678-3.707-4.76-1.406-.921-3.464-1.595-5.687-1.861-1.518-.183-4.559-.148-5.963.068zM161.281 20.002V36.5h6.715V22.73l1.482.001c1.864.001 2.971.176 3.831.607 1.356.678 2.186 1.728 7.164 9.07l2.731 4.028 3.998.034c3.68.032 3.991.017 3.914-.181-.131-.335-4.326-6.919-5.66-8.882-1.391-2.048-3.053-3.776-4.6-4.784-.567-.37-.952-.695-.856-.724.097-.027.531-.122.966-.21 1.233-.247 2.795-.854 3.707-1.44 1.848-1.188 3.239-3.22 3.683-5.379.31-1.508.195-3.803-.261-5.199-.822-2.514-2.654-4.493-4.868-5.261-2.193-.76-4.432-.904-14.144-.906h-7.802v16.498zm67.35-16.077c-.042.233-.06 7.642-.039 16.467l.037 16.044h6.715l.034-7.178.034-7.177h13.165V36.5h6.715V3.503h-6.715v12.991H235.41V3.503h-6.703l-.076.422zm-49.439 5.523c.859.34 1.712 1.148 2.093 1.98.352.77.376 2.514.046 3.421a3.533 3.533 0 01-1.784 1.96c-.978.471-2.453.59-7.37.592l-4.181.003V9.073l5.234.043c5.05.041 5.259.053 5.962.332zm26.716 2.83c-3.023.54-5.845 2.212-7.426 4.398-.778 1.075-1.707 3.02-2.056 4.3-.397 1.46-.492 4.352-.198 6.041.462 2.654 1.248 4.405 2.73 6.088 3.339 3.788 10.38 5.026 15.16 2.665 3.171-1.566 5.334-4.173 6.347-7.649.633-2.169.591-5.528-.095-7.73-1.337-4.285-5.301-7.614-9.749-8.184-1.34-.171-3.539-.138-4.713.072zm3.432 5c2.449.38 4.232 2.208 4.821 4.945.323 1.5.197 4.16-.258 5.479-.558 1.611-1.4 2.689-2.679 3.429-1.455.841-3.536.914-5.098.179-2.351-1.107-3.501-3.311-3.501-6.709 0-2.698.533-4.324 1.877-5.726.947-.989 2.171-1.534 3.85-1.715.073-.008.517.045.988.118z" fill="#fff"/></svg>
